material/.icons/material/alpha-c-circle-outline.svg

<svg xmlns="http://www.w3.org/2000/svg" viewBox="0 0 24 24"><path d="M11 7h2a2 2 0 012 2v1h-2V9h-2v6h2v-1h2v1a2 2 0 01-2 2h-2a2 2 0 01-2-2V9a2 2 0 012-2m1-5a10 10 0 0110 10 10 10 0 01-10 10A10 10 0 012 12 10 10 0 0112 2m0 2a8 8 0 00-8 8 8 8 0 008 8 8 8 0 008-8 8 8 0 00-8-8z"/></svg>

<?xml version="1.0" encoding="UTF-8"?><!DOCTYPE svg PUBLIC "-//W3C//DTD SVG 1.1//EN" "http://www.w3.org/Graphics/SVG/1.1/DTD/svg11.dtd"><svg xmlns="http://www.w3.org/2000/svg" xmlns:xlink="http://www.w3.org/1999/xlink" version="1.1" id="mdi-alpha-c-circle-outline" width="24" height="24" viewBox="0 0 24 24"><path d="M11,7H13A2,2 0 0,1 15,9V10H13V9H11V15H13V14H15V15A2,2 0 0,1 13,17H11A2,2 0 0,1 9,15V9A2,2 0 0,1 11,7M12,2A10,10 0 0,1 22,12A10,10 0 0,1 12,22A10,10 0 0,1 2,12A10,10 0 0,1 12,2M12,4A8,8 0 0,0 4,12A8,8 0 0,0 12,20A8,8 0 0,0 20,12A8,8 0 0,0 12,4Z" /></svg>
